packages/product-components/src/images/networks/dash.svg

<svg width="32" height="32" viewBox="0 0 32 32" fill="none" xmlns="http://www.w3.org/2000/svg">
<path d="M0 8C0 3.58172 3.58172 0 8 0H24C28.4183 0 32 3.58172 32 8V24C32 28.4183 28.4183 32 24 32H8C3.58172 32 0 28.4183 0 24V8Z" fill="#1F1F1F"/>
<path fill-rule="evenodd" clip-rule="evenodd" d="M12.1322 8.495H18.8643H18.8658C24.7823 8.495 25.8303 11.7246 24.9907 16.2616C24.4269 19.3083 23.019 21.6428 20.6515 22.7373C19.5855 23.2291 18.5779 23.505 16.209 23.505H9.49188L10.0511 20.3834L15.9586 20.3864C19.5075 20.3924 20.4551 18.851 20.9169 17.5016C21.0909 16.9963 21.4882 15.434 21.5032 14.5089C21.5287 12.7082 20.644 11.6212 17.6513 11.6212L11.5745 11.6137L12.1322 8.495ZM7.05037 16.2552C7.21558 15.5589 7.48251 14.4339 9.22649 14.4339H16.1205C16.1205 14.4339 16.0485 14.8013 15.8296 15.7114C15.8279 15.7188 15.8261 15.7263 15.8243 15.7339C15.6591 16.4301 15.3924 17.5541 13.6481 17.5541H6.75556C6.75556 17.5541 6.82603 17.1882 7.04494 16.2781C7.04674 16.2705 7.04855 16.2629 7.05037 16.2552Z" fill="white"/>
</svg>

<svg xmlns="http://www.w3.org/2000/svg" width="32" height="32" viewBox="0 0 32 32" fill="none">
    <path class="bg" fill="#1F1F1F" d="M0 8a8 8 0 0 1 8-8h16a8 8 0 0 1 8 8v16a8 8 0 0 1-8 8H8a8 8 0 0 1-8-8z"/>
    <path class="fg" fill="#fff" fill-rule="evenodd" d="M12.132 8.495h6.734c5.916 0 6.964 3.23 6.125 7.767-.564 3.046-1.972 5.38-4.34 6.475-1.065.492-2.073.768-4.442.768H9.492l.56-3.122 5.907.003c3.549.006 4.496-1.535 4.958-2.884.174-.506.571-2.068.586-2.993.026-1.8-.859-2.888-3.852-2.888l-6.076-.007zm-5.082 7.76c.166-.696.433-1.821 2.176-1.821h6.894s-.072.367-.29 1.277l-.006.023c-.165.696-.432 1.82-2.176 1.82H6.756s.07-.366.289-1.276z" clip-rule="evenodd"/>
</svg>
